img/adobe-creative-cloud.svg

<svg width="24" height="24" viewBox="0 0 24 24" fill="none" xmlns="http://www.w3.org/2000/svg">
<path d="M24 11.456V12.246C23.992 12.289 23.983 12.331 23.978 12.374C23.938 12.717 23.911 13.064 23.854 13.404C23.6701 14.5025 23.2704 15.5538 22.678 16.497C21.802 17.9223 20.5375 19.0682 19.033 19.8C18.1506 20.2369 17.1992 20.5178 16.221 20.63C16.004 20.655 15.787 20.677 15.569 20.701H7.138C7.095 20.693 7.053 20.681 7.01 20.678C6.16577 20.6275 5.33707 20.4285 4.562 20.09C2.865 19.347 1.6 18.143 0.771 16.486C0.405123 15.7555 0.168302 14.9672 0.071 14.156L0 13.563V12.796C0.008 12.753 0.02 12.711 0.023 12.668C0.0646034 11.9354 0.220137 11.2137 0.484 10.529C1.2 8.68 2.45 7.31 4.222 6.42C5.13477 5.96703 6.13203 5.70954 7.15 5.664C7.65206 5.6405 8.15521 5.6636 8.653 5.733C8.67855 5.73532 8.7043 5.73243 8.72871 5.72453C8.75311 5.71662 8.77566 5.70386 8.795 5.687C9.5059 4.95693 10.337 4.3545 11.252 3.906C12.1391 3.46784 13.0951 3.18604 14.078 3.073C14.312 3.046 14.545 3.024 14.778 3H15.498C15.544 3.007 15.592 3.016 15.638 3.021C15.995 3.063 16.353 3.089 16.706 3.148C17.7967 3.33204 18.8407 3.72818 19.779 4.314C21.2112 5.1896 22.3629 6.45684 23.098 7.966C23.536 8.849 23.817 9.801 23.928 10.78C23.954 11.006 23.976 11.23 24 11.456ZM10.58 6.343C10.595 6.363 10.599 6.371 10.605 6.374C11.098 6.617 11.57 6.903 12.015 7.227C12.043 7.247 12.113 7.239 12.147 7.217C13.369 6.443 14.694 6.176 16.117 6.428C17.512 6.675 18.647 7.372 19.514 8.485C20.496 9.745 20.871 11.169 20.599 12.755C20.418 13.816 19.992 14.769 19.269 15.567C17.949 17.023 16.297 17.624 14.352 17.37C13.1781 17.2239 12.0894 16.6813 11.266 15.832C10.168 14.722 9.062 13.621 7.961 12.514C7.814 12.367 7.651 12.249 7.44 12.223C7.26468 12.1989 7.08623 12.2315 6.93077 12.316C6.7753 12.4006 6.65099 12.5327 6.576 12.693C6.434 12.989 6.452 13.323 6.761 13.627C7.988 14.832 9.205 16.048 10.431 17.254C10.641 17.462 10.866 17.654 11.105 17.827C12.001 18.477 13.011 18.837 14.105 18.982C14.9558 19.1009 15.8211 19.0671 16.66 18.882C18.2336 18.5421 19.6445 17.6762 20.66 16.427C21.5182 15.3986 22.065 14.1465 22.236 12.818C22.3422 12.0464 22.3203 11.2625 22.171 10.498C21.927 9.247 21.398 8.128 20.551 7.176C18.933 5.36 16.898 4.549 14.477 4.73C13.5526 4.80474 12.6536 5.06925 11.836 5.507C11.3887 5.73946 10.9679 6.01977 10.581 6.343H10.58ZM9.989 19.02L9.889 18.927C9.388 18.453 8.883 17.982 8.387 17.502C8.34692 17.4573 8.29745 17.422 8.24212 17.3987C8.1868 17.3753 8.127 17.3645 8.067 17.367C7.565 17.379 7.062 17.382 6.567 17.27C4.106 16.713 2.677 14.037 3.584 11.683C4.299 9.826 6.28 8.695 8.233 9.044C9.108 9.2 9.877 9.571 10.508 10.221C11.277 11.015 12.068 11.787 12.846 12.573C13.023 12.752 13.226 12.833 13.472 12.798C13.788 12.753 14.041 12.602 14.155 12.291C14.2134 12.1514 14.2281 11.9973 14.1972 11.8492C14.1664 11.701 14.0913 11.5657 13.982 11.461C13.166 10.635 12.369 9.788 11.52 8.996C9.873 7.46 7.932 7.004 5.784 7.656C2.896 8.534 1.205 11.516 1.865 14.46C2.15025 15.7562 2.87024 16.9158 3.90545 17.7464C4.94065 18.577 6.22879 19.0285 7.556 19.026H9.855C9.893 19.026 9.931 19.023 9.989 19.02Z" fill="#DA1F26"/>
</svg>

<svg xmlns="http://www.w3.org/2000/svg" width="24" height="24" fill="none" viewBox="0 0 24 24">
  <path fill="#DA1F26" d="M24 11.456v.79c-.008.043-.017.085-.022.128-.04.343-.067.69-.124 1.03a8.433 8.433 0 0 1-1.176 3.093 8.793 8.793 0 0 1-3.645 3.303 8.527 8.527 0 0 1-2.812.83c-.217.025-.434.047-.652.071H7.138c-.043-.008-.085-.02-.128-.023a7.19 7.19 0 0 1-2.448-.588C2.865 19.347 1.6 18.143.771 16.486a7.088 7.088 0 0 1-.7-2.33L0 13.563v-.767c.008-.043.02-.085.023-.128a7.062 7.062 0 0 1 .461-2.139C1.2 8.68 2.45 7.31 4.222 6.42a7.323 7.323 0 0 1 2.928-.756 8.132 8.132 0 0 1 1.503.069.19.19 0 0 0 .142-.046 8.892 8.892 0 0 1 2.457-1.781 8.6 8.6 0 0 1 2.826-.833c.234-.027.467-.049.7-.073h.72c.046.007.094.016.14.021.357.042.715.068 1.068.127a8.46 8.46 0 0 1 3.073 1.166 8.794 8.794 0 0 1 3.319 3.652c.438.883.719 1.835.83 2.814.026.226.048.45.072.676ZM10.58 6.343c.015.02.019.028.025.031.493.243.965.529 1.41.853.028.02.098.012.132-.01 1.222-.774 2.547-1.041 3.97-.789 1.395.247 2.53.944 3.397 2.057.982 1.26 1.357 2.684 1.085 4.27-.181 1.061-.607 2.014-1.33 2.812-1.32 1.456-2.972 2.057-4.917 1.803a5.191 5.191 0 0 1-3.086-1.538c-1.098-1.11-2.204-2.211-3.305-3.318-.147-.147-.31-.265-.521-.291a.829.829 0 0 0-.864.47c-.142.296-.124.63.185.934 1.227 1.205 2.444 2.421 3.67 3.627.21.208.435.4.674.573.896.65 1.906 1.01 3 1.155a7.22 7.22 0 0 0 2.555-.1 7.082 7.082 0 0 0 4-2.455 7.034 7.034 0 0 0 1.576-3.609 7.072 7.072 0 0 0-.065-2.32c-.244-1.251-.773-2.37-1.62-3.322-1.618-1.816-3.653-2.627-6.074-2.446a6.747 6.747 0 0 0-2.641.777 6.97 6.97 0 0 0-1.255.836ZM9.989 19.02l-.1-.093c-.501-.474-1.006-.945-1.502-1.425a.407.407 0 0 0-.32-.135c-.502.012-1.005.015-1.5-.097-2.461-.557-3.89-3.233-2.983-5.587.715-1.857 2.696-2.988 4.649-2.639.875.156 1.644.527 2.275 1.177.769.794 1.56 1.566 2.338 2.352.177.179.38.26.626.225.316-.045.569-.196.683-.507a.749.749 0 0 0-.173-.83c-.816-.826-1.613-1.673-2.462-2.465-1.647-1.536-3.588-1.992-5.736-1.34-2.888.878-4.579 3.86-3.919 6.804a5.816 5.816 0 0 0 5.691 4.566h2.299c.038 0 .076-.003.134-.006Z"/>
</svg>
